X:632
%%etbk:tnset id:374,pos:1,rep:3x,ant:
%%etbk:pldat 2016-02-04T19:06,2016-02-03T16:11,2016-02-02T16:57,2016-01-30T13:27,2016-01-26T16:28,2016-01-25T18:21,2016-01-24T15:06,2016-01-20T16:28,2016-01-17T13:16,2016-01-16T15:25,2015-08-26T16:13,2015-08-04T17:10,2015-07-31T17:29,2015-07-29T15:21,2015-07-22T15:44,2015-06-26T16:37,2015-06-17T15:40,2015-06-16T15:19,2015-05-07T18:15,2015-04-16T18:07,2015-04-15T15:27,2015-04-13T18:09,2015-04-12T09:56,2015-04-11T13:30,2015-04-08T16:45,2015-03-19T17:50,2015-03-18T16:03,2015-03-16T18:16,2015-03-15T15:16,2015-03-12T17:54,2015-03-05T17:55,2015-02-22T14:10,2015-02-21T15:45,2015-02-19T18:44,2015-02-18T15:13,2015-02-17T15:38,2015-02-16T18:44,2015-02-14T13:32,2015-02-14T13:18,2015-02-13T18:04,2015-02-12T18:33
T:Cavan Girl
H: Created 2015-02-09 /  Modified 2015-02-12
M:4/4
L:1/8
R: song
K:Cmaj
 GF| "C"E3G "G/B"F3  D | "am"EC3 "em/G"D2 G,2 | "F"z2A,C "G"C3B, | "C"C6 EF |
"C"G2 E2 "G"G2AB | "am"c2 d2 "em"B3z | "F"z/A/ Ac B3G | "dm"A8 |
"C"G2 E2 "G"G2AB | "am"c2 d2 "em"B3z | "F"z/A/ Ac B3G | "dm"A6 GF |
"C"E3G "G/B"F3  D | "am"EC3 "em/G"D2 G,2 | "F"z2A,C "G"C3B, | "C"C8|


